dist/images/icons/icon-instagram.svg

<svg width="112" height="112" viewBox="0 0 112 112" fill="none" xmlns="http://www.w3.org/2000/svg">
<path fill-rule="evenodd" clip-rule="evenodd" d="M34.8366 4.97475C40.3106 4.72275 42.056 4.66675 56 4.66675C69.944 4.66675 71.6893 4.72741 77.1586 4.97475C82.628 5.22208 86.3613 6.09475 89.628 7.35941C93.0486 8.65208 96.152 10.6727 98.7186 13.2861C101.332 15.8481 103.348 18.9467 104.636 22.3721C105.905 25.6387 106.773 29.3721 107.025 34.8321C107.277 40.3154 107.333 42.0607 107.333 56.0001C107.333 69.9441 107.273 71.6894 107.025 77.1634C106.778 82.6234 105.905 86.3567 104.636 89.6234C103.348 93.0492 101.329 96.153 98.7186 98.7187C96.152 101.332 93.0486 103.348 89.628 104.636C86.3613 105.905 82.628 106.773 77.168 107.025C71.6893 107.277 69.944 107.333 56 107.333C42.056 107.333 40.3106 107.273 34.8366 107.025C29.3766 106.778 25.6433 105.905 22.3766 104.636C18.9509 103.348 15.8471 101.329 13.2813 98.7187C10.6697 96.1552 8.64876 93.0529 7.35929 89.6281C6.09463 86.3614 5.22663 82.6281 4.97463 77.1681C4.72263 71.6847 4.66663 69.9394 4.66663 56.0001C4.66663 42.0561 4.72729 40.3107 4.97463 34.8414C5.22196 29.3721 6.09463 25.6387 7.35929 22.3721C8.65067 18.9471 10.6732 15.8449 13.286 13.2814C15.8481 10.6704 18.9488 8.64948 22.372 7.35941C25.6386 6.09475 29.3766 5.22675 34.8366 4.97475ZM76.7433 14.2147C71.33 13.9674 69.706 13.9161 56 13.9161C42.294 13.9161 40.67 13.9674 35.2566 14.2147C30.2493 14.4434 27.5333 15.2787 25.7226 15.9834C23.3286 16.9167 21.616 18.0227 19.8193 19.8194C18.1162 21.4763 16.8055 23.4934 15.9833 25.7227C15.2786 27.5334 14.4433 30.2494 14.2146 35.2567C13.9673 40.6701 13.916 42.2941 13.916 56.0001C13.916 69.7061 13.9673 71.3301 14.2146 76.7434C14.4433 81.7507 15.2786 84.4667 15.9833 86.2774C16.8046 88.5034 18.116 90.5241 19.8193 92.1807C21.476 93.8841 23.4966 95.1954 25.7226 96.0167C27.5333 96.7214 30.2493 97.5567 35.2566 97.7854C40.67 98.0327 42.2893 98.0841 56 98.0841C69.7106 98.0841 71.33 98.0327 76.7433 97.7854C81.7506 97.5567 84.4666 96.7214 86.2773 96.0167C88.6713 95.0834 90.384 93.9774 92.1806 92.1807C93.884 90.5241 95.1953 88.5034 96.0166 86.2774C96.7213 84.4667 97.5566 81.7507 97.7853 76.7434C98.0326 71.3301 98.084 69.7061 98.084 56.0001C98.084 42.2941 98.0326 40.6701 97.7853 35.2567C97.5566 30.2494 96.7213 27.5334 96.0166 25.7227C95.0833 23.3287 93.9773 21.6161 92.1806 19.8194C90.5236 18.1164 88.5066 16.8057 86.2773 15.9834C84.4666 15.2787 81.7506 14.4434 76.7433 14.2147ZM49.4433 71.8247C53.105 73.349 57.1824 73.5547 60.979 72.4068C64.7755 71.2588 68.0558 68.8284 70.2595 65.5305C72.4632 62.2327 73.4535 58.2721 73.0615 54.3252C72.6695 50.3783 70.9193 46.69 68.11 43.8901C66.3191 42.1003 64.1536 40.7299 61.7695 39.8774C59.3854 39.025 56.842 38.7118 54.3223 38.9603C51.8026 39.2088 49.3693 40.0129 47.1977 41.3147C45.0261 42.6165 43.1701 44.3836 41.7634 46.4887C40.3566 48.5939 39.4342 50.9848 39.0624 53.4892C38.6906 55.9937 38.8787 58.5494 39.6131 60.9725C40.3476 63.3955 41.6102 65.6256 43.31 67.5021C45.0098 69.3786 47.1045 70.8549 49.4433 71.8247ZM37.3426 37.3427C39.7927 34.8926 42.7015 32.9491 45.9027 31.6231C49.1039 30.2971 52.535 29.6146 56 29.6146C59.4649 29.6146 62.896 30.2971 66.0972 31.6231C69.2985 32.9491 72.2072 34.8926 74.6573 37.3427C77.1074 39.7929 79.0509 42.7016 80.3769 45.9028C81.7029 49.104 82.3854 52.5351 82.3854 56.0001C82.3854 59.4651 81.7029 62.8961 80.3769 66.0974C79.0509 69.2986 77.1074 72.2073 74.6573 74.6574C69.7091 79.6056 62.9978 82.3855 56 82.3855C49.0021 82.3855 42.2909 79.6056 37.3426 74.6574C32.3944 69.7092 29.6145 62.9979 29.6145 56.0001C29.6145 49.0022 32.3944 42.291 37.3426 37.3427ZM88.2373 33.5441C88.8444 32.9713 89.3305 32.2826 89.6667 31.5186C90.0029 30.7547 90.1824 29.931 90.1946 29.0964C90.2067 28.2618 90.0513 27.4333 89.7375 26.6599C89.4238 25.8864 88.958 25.1838 88.3678 24.5936C87.7776 24.0034 87.075 23.5376 86.3015 23.2238C85.5281 22.91 84.6995 22.7546 83.8649 22.7668C83.0304 22.779 82.2067 22.9585 81.4427 23.2947C80.6788 23.6309 79.99 24.1169 79.4173 24.7241C78.3034 25.9049 77.6936 27.4733 77.7172 29.0964C77.7409 30.7195 78.3962 32.2695 79.544 33.4173C80.6919 34.5652 82.2418 35.2205 83.8649 35.2441C85.4881 35.2678 87.0565 34.658 88.2373 33.5441Z" fill="white"/>
</svg>

<svg width="112" height="112" fill="none" xmlns="http://www.w3.org/2000/svg"><path fill-rule="evenodd" clip-rule="evenodd" d="M34.837 4.975c5.474-.252 7.219-.308 21.163-.308 13.944 0 15.69.06 21.159.308 5.469.247 9.202 1.12 12.469 2.384a25.254 25.254 0 019.09 5.927 25.072 25.072 0 015.918 9.086c1.269 3.267 2.137 7 2.389 12.46.252 5.483.308 7.229.308 21.168 0 13.944-.06 15.69-.308 21.163-.247 5.46-1.12 9.194-2.389 12.46a25.175 25.175 0 01-5.917 9.096 25.17 25.17 0 01-9.091 5.917c-3.267 1.269-7 2.137-12.46 2.389-5.479.252-7.224.308-21.168.308-13.944 0-15.69-.06-21.163-.308-5.46-.247-9.194-1.12-12.46-2.389a25.178 25.178 0 01-9.096-5.917 25.162 25.162 0 01-5.922-9.09c-1.264-3.268-2.132-7-2.384-12.46-.252-5.484-.308-7.23-.308-21.169 0-13.944.06-15.69.308-21.159.247-5.469 1.12-9.202 2.384-12.469a25.181 25.181 0 015.927-9.09 25.161 25.161 0 019.086-5.923c3.267-1.264 7.005-2.132 12.465-2.384zm41.906 9.24c-5.413-.248-7.037-.299-20.743-.299s-15.33.051-20.743.299c-5.008.228-7.724 1.064-9.534 1.768-2.394.934-4.107 2.04-5.904 3.836a15.923 15.923 0 00-3.836 5.904c-.704 1.81-1.54 4.526-1.768 9.534-.248 5.413-.299 7.037-.299 20.743s.051 15.33.299 20.743c.228 5.008 1.064 7.724 1.768 9.534a15.934 15.934 0 003.836 5.904 15.934 15.934 0 005.904 3.836c1.81.704 4.526 1.54 9.534 1.768 5.413.248 7.032.3 20.743.3 13.71 0 15.33-.052 20.743-.3 5.008-.228 7.724-1.064 9.534-1.768 2.394-.934 4.107-2.04 5.904-3.836a15.933 15.933 0 003.836-5.904c.704-1.81 1.54-4.526 1.768-9.534.248-5.413.299-7.037.299-20.743s-.051-15.33-.299-20.743c-.228-5.008-1.064-7.724-1.768-9.534-.934-2.394-2.04-4.107-3.836-5.904a15.927 15.927 0 00-5.904-3.836c-1.81-.704-4.526-1.54-9.534-1.768zm-27.3 57.61A17.122 17.122 0 0068.11 43.89a17.128 17.128 0 10-18.667 27.935zm-12.1-34.482a26.386 26.386 0 1137.315 37.316 26.386 26.386 0 01-37.315-37.316zm50.894-3.799a6.24 6.24 0 10-8.565-9.078 6.24 6.24 0 008.565 9.078z" fill="#fff"/></svg>
